X: 43442
T: Yankee Cabbage
R: reel
M: 4/4
K: Dmajor
(3Bcd AG FDDA|FDAD FDD2|(3Bcd AG FDDF|GFEF GABc|
.d2 AG FDDA|FDAD FDD2|.d2 AG FDDF|GFEF GABc||
.d2 fg afdf|fefd edBc|defg afdf|.g2 bg e2dc|
defg afdf|.g2 fd edBc|dABG FAdf|.g2 bg e2dB||

